( Made using CamBam - http://www.cambam.co.uk )
( test_05_05_20 5/6/2020 3:45:16 PM )
( Post processor: Default )
( T0 : 0.0 )
G21 G90 G64 G40
G0 Z10.0
( T0 : 0.0 )
T0 M6
( Profile1 )
G17
M3 S1000
G0 X78.701 Y52.1124
G1 F300.0 Z0.0
G2 F800.0 X78.6484 Y51.7559 I-3.7819 J0.3751
G2 X78.4375 Y51.3164 I-0.9139 J0.1683
G2 X78.0156 Y51.0527 I-0.9474 J1.0465
G2 X77.3652 Y50.8594 I-1.1931 J2.8226
G2 X76.6094 Y50.7188 I-1.5986 J6.4909
G2 X75.8008 Y50.666 I-0.8097 J6.1898
G2 X73.6914 Y50.9824 I-0.1325 J6.3063
G2 X72.25 Y51.9668 I1.2032 J3.3094
G2 X71.4238 Y53.6367 I3.2879 J2.666
G2 X71.1777 Y56.0273 I10.1169 J2.2494
G1 Y65.2734
G1 X68.9629
G2 X68.541 Y65.5547 I0.0137 J0.4776
G2 X68.3828 Y66.4688 I1.9158 J0.8023
G2 X68.418 Y67.0313 I3.8568 J0.0413
G2 X68.541 Y67.4004 I1.6885 J-0.3578
G2 X68.7168 Y67.6113 I0.3887 J-0.1452
G2 X68.9805 Y67.6816 I0.2619 J-0.4526
G1 X71.1777
G1 Y71.4434
G2 X71.2305 Y71.6719 I0.5038 J0.0041
G2 X71.459 Y71.8477 I0.4213 J-0.3113
G2 X71.916 Y71.9707 I0.601 J-1.322
G2 X72.6191 Y72.0059 I0.6483 J-5.9172
G2 X73.3398 Y71.9707 I0.061 J-6.1552
G2 X73.7793 Y71.8477 I-0.1163 J-1.2617
G2 X74.0078 Y71.6719 I-0.1929 J-0.4872
G2 X74.0781 Y71.4434 I-0.3336 J-0.2277
G1 Y67.6816
G1 X78.1387
G2 X78.3848 Y67.6113 I0.0092 J-0.4337
G2 X78.5605 Y67.4004 I-0.2129 J-0.3561
G2 X78.6836 Y67.0313 I-0.8592 J-0.4915
G2 X78.7188 Y66.4688 I-3.8046 J-0.5201
G2 X78.5605 Y65.5547 I-2.0742 J-0.1117
G2 X78.1387 Y65.2734 I-0.4356 J0.1964
G1 X74.0781
G1 Y56.4492
G3 X74.1671 Y55.1816 I8.1838 J-0.0622
G3 X74.5527 Y53.9707 I3.6449 J0.4938
G3 X75.3089 Y53.3176 I1.3424 J0.7899
G3 X76.293 Y53.1445 I0.9265 J2.3838
G3 X77.0137 Y53.2148 I0.036 J3.3596
G3 X77.5762 Y53.3906 I-2.1876 J7.9883
G3 X77.998 Y53.5488 I-4.2524 J11.9813
G2 X78.3145 Y53.6367 I0.3488 J-0.6422
G2 X78.4727 Y53.584 I0.0022 J-0.2571
G2 X78.5957 Y53.4258 I-0.0964 J-0.2019
G2 X78.6836 Y53.0918 I-1.4367 J-0.5566
G2 X78.7188 Y52.5645 I-3.3197 J-0.4862
G2 X78.701 Y52.1124 I-3.7997 J-0.0769
G0 Z10.0
G0 X66.2457 Y54.6423
G1 F300.0 Z0.0
G2 F800.0 X65.8867 Y53.5488 I-4.8379 J0.9827
G2 X64.6211 Y51.9492 I-3.9234 J1.8037
G2 X62.6523 Y50.9648 I-3.5152 J4.5696
G2 X60.1387 Y50.6309 I-2.4248 J8.6237
G2 X58.5215 Y50.7715 I-0.029 J9.0358
G2 X57.1504 Y51.0879 I1.5391 J9.7983
G2 X56.1309 Y51.5098 I2.9693 J8.6188
G2 X55.5156 Y51.9141 I1.5533 J3.034
G2 X55.2344 Y52.4063 I0.7097 J0.732
G2 X55.1465 Y53.2676 I3.3663 J0.7786
G2 X55.1816 Y53.8301 I3.8568 J0.0413
G2 X55.2695 Y54.1992 I1.929 J-0.2643
G2 X55.4102 Y54.3926 I0.354 J-0.1096
G2 X55.6387 Y54.4629 I0.2277 J-0.3336
G2 X56.2012 Y54.2168 I-0.2195 J-1.2677
G3 X57.1328 Y53.707 I9.6105 J16.4578
G3 X58.4512 Y53.1797 I4.2521 J8.7186
G3 X60.1914 Y52.9512 I1.6508 J5.831
G3 X61.5273 Y53.1094 I0.0563 J5.244
G3 X62.5645 Y53.5664 I-0.8193 J3.2644
G3 X63.2324 Y54.3574 I-1.1966 J1.688
G3 X63.4785 Y55.4824 I-2.1797 J1.0662
G3 X63.127 Y56.6074 I-1.7949 J0.0565
G3 X62.2305 Y57.416 I-2.5421 J-1.9172
G3 X60.9648 Y58.0313 I-3.7084 J-6.0192
G3 X59.5059 Y58.6113 I-237.7073 J-595.7452
G2 X58.0469 Y59.2793 I6.7772 J16.7303
G2 X56.7813 Y60.2109 I2.8253 J5.1636
G2 X55.8672 Y61.5117 I3.0326 J3.1026
G2 X55.5332 Y63.3223 I4.159 J1.7033
G2 X55.8848 Y65.0977 I4.5701 J0.0175
G2 X56.9746 Y66.5918 I3.8026 J-1.6291
G2 X58.7676 Y67.6289 I3.5329 J-4.0393
G2 X61.2988 Y68.0156 I2.3983 J-7.2204
G2 X62.5645 Y67.9102 I-0.0032 J-7.6851
G2 X63.707 Y67.6465 I-1.3877 J-8.6207
G2 X64.5684 Y67.2949 I-1.3451 J-4.5264
G2 X65.1133 Y66.9785 I-1.25 J-2.7801
G2 X65.3594 Y66.7324 I-0.4628 J-0.7089
G2 X65.4473 Y66.4863 I-0.4721 J-0.3074
G2 X65.5 Y66.1699 I-1.7436 J-0.4532
G2 X65.5352 Y65.6953 I-2.721 J-0.4402
G2 X65.5 Y65.168 I-3.5294 J-0.0296
G2 X65.4121 Y64.8164 I-0.9748 J0.0569
G2 X65.2715 Y64.6055 I-0.4574 J0.1526
G2 X65.0781 Y64.5527 I-0.1901 J0.3161
G2 X64.6211 Y64.7461 I0.1708 J1.0405
G3 X63.8477 Y65.1504 I-3.0839 J-4.9578
G3 X62.7227 Y65.5723 I-3.2491 J-6.9533
G3 X61.2637 Y65.7656 I-1.3833 J-4.8369
G3 X59.9629 Y65.5898 I-0.0683 J-4.3953
G3 X59.0313 Y65.1152 I0.6085 J-2.3461
G3 X58.4863 Y64.3945 I1.3322 J-1.5736
G3 X58.3105 Y63.4805 I2.1782 J-0.8928
G3 X58.6621 Y62.3203 I1.8998 J-0.0576
G3 X59.5762 Y61.5117 I2.6973 J2.1282
G3 X60.8594 Y60.8789 I4.0438 J6.5825
G2 X62.3184 Y60.2988 I-49.2676 J-126.0404
G2 X63.7949 Y59.6309 I-6.1605 J-15.584
G2 X65.0957 Y58.7344 I-2.4125 J-4.8925
G2 X65.9922 Y57.4688 I-2.7034 J-2.8652
G2 X66.3438 Y55.7109 I-3.7286 J-1.6598
G2 X66.2457 Y54.6423 I-4.9359 J-0.086
G0 Z10.0
G0 X49.082 Y60.8613
G1 F300.0 Z0.0
G3 F800.0 X48.8949 Y62.746 I-7.0885 J0.2477
G3 X48.0625 Y64.4473 I-4.1644 J-0.9832
G3 X46.622 Y65.4654 I-2.5832 J-2.1267
G3 X44.8809 Y65.748 I-1.6575 J-4.7061
G3 X42.9824 Y65.3438 I-0.081 J-4.2791
G3 X41.6289 Y64.2715 I1.7944 J-3.6555
G3 X40.7852 Y62.707 I3.8222 J-3.0711
G3 X40.4512 Y60.8613 I6.0918 J-2.0554
G1 X49.082
G0 Z10.0
G0 Y58.7344
G1 F300.0 Z0.0
G1 F800.0 X40.4512
G3 X40.7148 Y56.3613 I9.8486 J-0.1069
G3 X41.5938 Y54.5508 I4.4709 J1.0517
G3 X43.1934 Y53.3906 I3.0508 J2.5236
G3 X45.6191 Y52.9863 I2.2706 J6.144
G3 X47.623 Y53.1621 I0.102 J10.3478
G3 X49.1523 Y53.584 I-2.4681 J11.9295
G3 X50.207 Y53.9883 I-5.4099 J15.6905
G2 X50.8398 Y54.1816 I0.85 J-1.6496
G2 X51.0508 Y54.1113 I0.0081 J-0.3274
G2 X51.209 Y53.9355 I-0.1543 J-0.2979
G2 X51.2969 Y53.584 I-1.4721 J-0.5548
G2 X51.332 Y53.0566 I-3.3197 J-0.4862
G2 X51.3145 Y52.6523 I-4.1401 J-0.0225
G2 X51.2617 Y52.3535 I-2.2487 J0.2428
G2 X51.1738 Y52.125 I-0.5411 J0.077
G2 X51.0156 Y51.9141 I-0.7366 J0.3877
G2 X50.4531 Y51.5977 I-1.9373 J2.786
G2 X49.2227 Y51.1758 I-3.6494 J8.6388
G2 X47.4648 Y50.8066 I-4.1322 J15.3075
G2 X45.3555 Y50.6309 I-2.0495 J11.8494
G2 X41.9277 Y51.1758 I-0.1778 J9.935
G2 X39.4668 Y52.793 I2.1653 J5.9761
G2 X37.9551 Y55.4824 I5.1372 J4.6572
G2 X37.4453 Y59.2441 I12.1141 J3.557
G2 X37.9727 Y62.9004 I11.817 J0.1618
G2 X39.4844 Y65.6602 I7.4181 J-2.2695
G2 X41.8926 Y67.4004 I4.9648 J-4.3341
G2 X45.0391 Y68.0156 I3.0355 J-7.1707
G2 X48.2031 Y67.418 I0.2003 J-7.6139
G2 X50.3652 Y65.8008 I-2.3839 J-5.4411
G2 X51.5957 Y63.4277 I-4.8332 J-4.0117
G2 X52.0 Y60.5273 I-9.6936 J-2.8296
G1 Y60.0
G2 X51.9313 Y59.4696 I-1.8546 J-0.0296
G2 X51.6484 Y59.0156 I-0.9015 J0.2467
G2 X50.8574 Y58.7344 I-0.7841 J0.9524
G1 X49.082
G0 Z10.0
G0 X35.3086 Y71.3065
G1 F300.0 Z0.0
G2 F800.0 X35.1953 Y71.2148 I-0.3582 J0.327
G2 X34.9492 Y71.1445 I-0.237 J0.3636
G1 X28.5508
G1 Y51.4219
G2 X28.4805 Y51.1758 I-0.4337 J-0.0092
G2 X28.2344 Y51.0 I-0.4156 J0.3218
G2 X27.7598 Y50.9121 I-0.7777 J2.874
G2 X27.0391 Y50.8594 I-0.6601 J4.0705
G2 X26.3184 Y50.9121 I-0.0494 J4.2759
G2 X25.8438 Y51.0 I0.3051 J2.973
G2 X25.5977 Y51.1758 I0.1695 J0.4975
G2 X25.5273 Y51.4219 I0.3636 J0.237
G1 Y71.1445
G1 X19.1289
G2 X18.8652 Y71.2148 I-0.0018 J0.5228
G2 X18.6895 Y71.4258 I0.3086 J0.4359
G2 X18.5664 Y71.8301 I1.9681 J0.8199
G2 X18.5313 Y72.4102 I4.1634 J0.5434
G2 X18.5664 Y72.9902 I4.214 J0.0357
G2 X18.6895 Y73.4121 I2.0775 J-0.3771
G2 X18.8652 Y73.6406 I0.4872 J-0.1929
G2 X19.1289 Y73.7109 I0.2619 J-0.4526
G1 X34.9492
G2 X35.1953 Y73.6406 I0.0092 J-0.4337
G2 X35.3887 Y73.4121 I-0.2476 J-0.4056
G2 X35.5117 Y72.9902 I-1.0965 J-0.5487
G2 X35.5469 Y72.4102 I-4.1634 J-0.5434
G2 X35.5117 Y71.8301 I-4.214 J-0.0357
G2 X35.3887 Y71.4258 I-1.1838 J0.1394
G2 X35.3086 Y71.3065 I-0.4383 J0.2077
G0 Z10.0
G0 X21.6169 Y91.1631
G1 F300.0 Z0.0
G3 F800.0 X25.0 Y6.6987 I28.3831 J-41.1631
G3 X100.0 Y50.0 I25.0 J43.3013
G3 X25.0 Y93.3013 I-50.0 J0.0
G3 X21.6169 Y91.1631 I25.0 J-43.3013
G0 Z10.0
G0 X-25.0 Y129.6565
G1 F300.0 Z0.0
G1 F800.0 Y-20.3435
G1 X125.0
G1 Y129.6565
G1 X-25.0
( Profile2 )
S1000
G0 Z10.0
G0 X61.9547 Y16.919
G1 F300.0 Z0.0
G3 F800.0 X61.9613 Y36.919 I0.0066 J10.0
G0 Z10.0
G0 X61.9547 Y16.919
G0 Z1.0
G1 F300.0 Z0.0
G2 F800.0 X61.4283 Y16.9284 I0.1648 J24.143
G2 X59.3749 Y17.1673 I0.4002 J12.3845
G2 X57.5387 Y17.7251 I1.9852 J9.8353
G2 X55.9634 Y18.5566 I3.5334 J8.6025
G2 X54.6563 Y19.5773 I5.4419 J8.3162
G2 X53.5861 Y20.6989 I8.281 J8.973
G2 X52.7041 Y21.8548 I11.8765 J9.9772
G2 X51.9634 Y23.0026 I16.8684 J11.698
G1 X51.8809 Y23.1405
G1 X51.7999 Y23.2779
G1 X51.7203 Y23.4147
G1 X51.642 Y23.5509
G1 X51.5651 Y23.6865
G1 X51.4893 Y23.8216
G1 X51.4148 Y23.956
G1 X51.3414 Y24.0897
G1 X51.1974 Y24.356
G1 X50.9194 Y24.8838
G1 X50.8529 Y25.0124
G1 X50.5922 Y25.5246
G1 X50.343 Y26.0235
G1 X49.8651 Y26.995
G3 X49.809 Y27.1093 I-4.1163 J-1.9464
G1 X49.3623 Y28.0163
G3 X49.3093 Y28.1228 I-1.6838 J-0.7712
G3 X49.2566 Y28.2284 I-1.611 J-0.738
G3 X48.8322 Y29.0636 I-39.4617 J-19.5265
G3 X48.4194 Y29.8416 I-57.0608 J-29.7756
G1 X48.3199 Y30.023
G3 X47.491 Y31.4269 I-22.1783 J-12.1489
G3 X46.6774 Y32.6053 I-14.3253 J-9.0197
G3 X45.8784 Y33.5745 I-11.1196 J-8.3529
G3 X45.1022 Y34.3546 I-8.9219 J-8.1013
G3 X43.5626 Y35.5087 I-6.5331 J-7.1117
G3 X42.2723 Y36.1552 I-4.6634 J-7.6959
G3 X40.1926 Y36.7432 I-3.7742 J-9.3773
G1 X39.9256 Y36.786
G3 X39.4561 Y36.8457 I-1.7363 J-11.7657
G3 X38.0387 Y36.919 I-1.4089 J-13.5034
G0 Z10.0
G0 X38.0764
G1 F300.0 Z0.0
G3 F800.0 X38.0453 Y16.919 I-0.0311 J-10.0
G3 X38.5717 Y16.9284 I-0.1648 J24.143
G3 X40.6251 Y17.1673 I-0.4002 J12.3845
G3 X42.4613 Y17.7251 I-1.9852 J9.8353
G3 X44.0366 Y18.5566 I-3.5334 J8.6025
G3 X45.3437 Y19.5773 I-5.4419 J8.3162
G3 X46.4139 Y20.6989 I-8.281 J8.973
G3 X47.2959 Y21.8548 I-11.8765 J9.9772
G3 X48.0366 Y23.0026 I-16.8684 J11.698
G1 X48.1191 Y23.1405
G1 X48.2001 Y23.2779
G1 X48.2797 Y23.4147
G1 X48.358 Y23.5509
G1 X48.4349 Y23.6865
G1 X48.5107 Y23.8216
G1 X48.5852 Y23.956
G1 X48.6586 Y24.0897
G1 X48.8026 Y24.356
G1 X49.0806 Y24.8838
G1 X49.1471 Y25.0124
G1 X49.4078 Y25.5246
G1 X49.657 Y26.0235
G1 X50.1349 Y26.995
G2 X50.191 Y27.1093 I4.1163 J-1.9464
G1 X50.6377 Y28.0163
G2 X50.6907 Y28.1228 I1.6838 J-0.7712
G2 X50.7434 Y28.2284 I1.611 J-0.738
G2 X51.1678 Y29.0636 I39.4617 J-19.5265
G2 X51.5806 Y29.8416 I57.0608 J-29.7756
G1 X51.6801 Y30.023
G2 X52.509 Y31.4269 I22.1783 J-12.1489
G2 X53.3226 Y32.6053 I14.3253 J-9.0197
G2 X54.1216 Y33.5745 I11.1196 J-8.3529
G2 X54.8978 Y34.3546 I8.9219 J-8.1013
G2 X56.4374 Y35.5087 I6.5331 J-7.1117
G2 X57.7277 Y36.1552 I4.6634 J-7.6959
G2 X59.8074 Y36.7432 I3.7742 J-9.3773
G1 X60.0744 Y36.786
G2 X60.5439 Y36.8457 I1.7363 J-11.7657
G2 X61.9613 Y36.919 I1.4089 J-13.5034
G0 Z10.0
M5
M30
